X: 27365
T: Mná Na hÉireann
R: barndance
M: 4/4
K: Dmajor
"Em"EEF G d4|d"E"edc "A"E4|EF "Em"G2 FG E2|"A"E6 z2|
"Em"EEF G d4|d"E"edc "A"E4|EF "G"G2 FG "A"A2|A6 z2|
G"D"FA "Bm"D D4|z "Bm"DD d d4|e"G"fed BA B2|B6 AG|
F"Em"E d4 de|"A"dcA "G"B4 E|E2 DC "D"D4||

